Newaita/actions/32/view-more.svg

<svg height="32" viewBox="0 0 32 32" width="32" xmlns="http://www.w3.org/2000/svg"><g fill="#424242"><path d="m19.183594 26.050781c0-1.832031-1.476563-3.308593-3.308594-3.308593s-3.304688 1.476562-3.304688 3.308593 1.472657 3.304688 3.304688 3.304688 3.308594-1.472657 3.308594-3.304688zm0 0"/><path d="m19.183594 16.125c0-1.832031-1.476563-3.304688-3.308594-3.304688s-3.304688 1.472657-3.304688 3.304688 1.472657 3.308594 3.304688 3.308594 3.308594-1.476563 3.308594-3.308594zm0 0"/><path d="m19.183594 6.203125c0-1.832031-1.476563-3.308594-3.308594-3.308594s-3.304688 1.476563-3.304688 3.308594 1.472657 3.308594 3.304688 3.308594 3.308594-1.476563 3.308594-3.308594zm0 0"/></g></svg>

<?xml version="1.0" encoding="UTF-8"?>
<svg xmlns="http://www.w3.org/2000/svg" xmlns:xlink="http://www.w3.org/1999/xlink" width="32px" height="32px" viewBox="0 0 32 32" version="1.1">
<g id="surface1">
<path style=" stroke:none;fill-rule:nonzero;fill:rgb(25.882354%,25.882354%,25.882354%);fill-opacity:1;" d="M 19.183594 26.050781 C 19.183594 24.21875 17.707031 22.742188 15.875 22.742188 C 14.042969 22.742188 12.570312 24.21875 12.570312 26.050781 C 12.570312 27.882812 14.042969 29.355469 15.875 29.355469 C 17.707031 29.355469 19.183594 27.882812 19.183594 26.050781 Z M 19.183594 26.050781 "/>
<path style=" stroke:none;fill-rule:nonzero;fill:rgb(25.882354%,25.882354%,25.882354%);fill-opacity:1;" d="M 19.183594 16.125 C 19.183594 14.292969 17.707031 12.820312 15.875 12.820312 C 14.042969 12.820312 12.570312 14.292969 12.570312 16.125 C 12.570312 17.957031 14.042969 19.433594 15.875 19.433594 C 17.707031 19.433594 19.183594 17.957031 19.183594 16.125 Z M 19.183594 16.125 "/>
<path style=" stroke:none;fill-rule:nonzero;fill:rgb(25.882354%,25.882354%,25.882354%);fill-opacity:1;" d="M 19.183594 6.203125 C 19.183594 4.371094 17.707031 2.894531 15.875 2.894531 C 14.042969 2.894531 12.570312 4.371094 12.570312 6.203125 C 12.570312 8.035156 14.042969 9.511719 15.875 9.511719 C 17.707031 9.511719 19.183594 8.035156 19.183594 6.203125 Z M 19.183594 6.203125 "/>
</g>
</svg>
